src/assets/icons/category_Moda.svg

<?xml version="1.0" encoding="UTF-8" standalone="no"?>
<svg width="38px" height="38px" viewBox="0 0 38 38" version="1.1" xmlns="http://www.w3.org/2000/svg" xmlns:xlink="http://www.w3.org/1999/xlink">
    <!-- Generator: sketchtool 41.2 (35397) - http://www.bohemiancoding.com/sketch -->
    <title>FAF5DE4D-72C0-445E-A0EB-D3A014673B36</title>
    <desc>Created with sketchtool.</desc>
    <defs></defs>
    <g id="Nav" stroke="none" stroke-width="1" fill="none" fill-rule="evenodd">
        <g id="Categories_Selected_Mobile-" transform="translate(-80.000000, -501.000000)" fill="#AEAEAE">
            <path d="M109.75,519.097676 C109.75,519.133301 109.73575,519.163384 109.708042,519.186342 C109.679542,519.209301 109.647083,519.217217 109.61225,519.210884 L107.823083,518.853051 C107.673458,518.822967 107.523833,518.819009 107.375,518.829301 L107.375,517.036967 C107.375,516.599967 107.020333,516.245301 106.583333,516.245301 C106.146333,516.245301 105.791667,516.599967 105.791667,517.036967 L105.791667,520.518717 L105.791667,521.786967 L105.791667,526.536967 L91.5416667,526.536967 L91.5416667,521.786967 L91.5416667,520.518717 L91.5416667,517.036967 C91.5416667,516.599967 91.187,516.245301 90.75,516.245301 C90.313,516.245301 89.9583333,516.599967 89.9583333,517.036967 L89.9583333,518.829301 C89.9203333,518.826926 89.883125,518.819801 89.845125,518.819801 C89.7335,518.819801 89.6210833,518.830884 89.5094583,518.853051 L87.721875,519.210884 C87.683875,519.217217 87.653,519.209301 87.6260833,519.187134 C87.5975833,519.163384 87.5833333,519.133301 87.5833333,519.097676 L87.5833333,512.847467 C87.5833333,512.803926 87.607875,512.764342 87.6474583,512.744551 L93.9475417,509.594509 C93.9673333,509.584217 93.9934583,509.576301 94.0282917,509.591342 C94.0480833,509.599259 94.096375,509.627759 94.11775,509.700592 C94.7170417,511.690051 96.58775,513.078634 98.6666667,513.078634 C100.745583,513.078634 102.616292,511.690051 103.215583,509.700592 C103.236958,509.627759 103.28525,509.599259 103.305042,509.591342 C103.340667,509.575509 103.366,509.584217 103.386583,509.594509 L109.686667,512.745342 C109.725458,512.764342 109.75,512.803926 109.75,512.848259 L109.75,519.097676 Z M105.676083,530.495301 L91.65725,530.495301 C91.593125,530.495301 91.5416667,530.443842 91.5416667,530.379717 L91.5416667,528.120301 L105.791667,528.120301 L105.791667,530.379717 C105.791667,530.443842 105.740208,530.495301 105.676083,530.495301 L105.676083,530.495301 Z M110.394417,511.329051 L104.094333,508.178217 L104.093542,508.178217 C103.649417,507.955759 103.13325,507.941509 102.67725,508.137842 C102.206208,508.341301 101.849958,508.744259 101.699542,509.243801 C101.29975,510.569842 100.052875,511.495301 98.6666667,511.495301 C97.2804583,511.495301 96.0335833,510.569842 95.6337917,509.243801 C95.483375,508.744259 95.127125,508.341301 94.6560833,508.137842 C94.200875,507.940717 93.6839167,507.955759 93.2397917,508.178217 L86.9397083,511.328259 C86.3602083,511.617217 86,512.199884 86,512.847467 L86,519.097676 C86,519.608301 86.2264167,520.087259 86.6214583,520.411051 C87.0165,520.734842 87.5295,520.863092 88.0322083,520.763342 L89.8205833,520.405509 C89.8554167,520.400759 89.887875,520.406301 89.916375,520.430051 C89.9440833,520.452217 89.9583333,520.483092 89.9583333,520.518717 L89.9583333,521.786967 L89.9583333,530.379717 C89.9583333,531.317051 90.7207083,532.078634 91.65725,532.078634 L105.676083,532.078634 C106.612625,532.078634 107.375,531.317051 107.375,530.379717 L107.375,521.786967 L107.375,520.518717 C107.375,520.483092 107.38925,520.452217 107.416958,520.430051 C107.444667,520.406301 107.477125,520.399967 107.51275,520.405509 L109.301917,520.763342 C109.80225,520.863092 110.316833,520.734842 110.711875,520.411051 C111.106917,520.087259 111.333333,519.608301 111.333333,519.097676 L111.333333,512.848259 C111.333333,512.200676 110.973125,511.618009 110.394417,511.329051 L110.394417,511.329051 Z" id="Fill-36"></path>
        </g>
    </g>
</svg>

<svg width="38" height="38" viewBox="0 0 38 38" xmlns="http://www.w3.org/2000/svg"><g id="Nav" fill="none" fill-rule="evenodd"><g id="Categories_Selected_Mobile-" transform="translate(-80 -501)" fill="#AEAEAE"><path d="M109.75 519.098a.111.111 0 0 1-.042.088.114.114 0 0 1-.096.025l-1.789-.358c-.15-.03-.3-.034-.448-.024v-1.792a.792.792 0 0 0-1.583 0v9.5h-14.25v-9.5a.792.792 0 0 0-1.584 0v1.792c-.038-.002-.075-.01-.113-.01-.111 0-.224.012-.336.034l-1.787.358a.113.113 0 0 1-.096-.024.112.112 0 0 1-.043-.09v-6.25c0-.043.025-.083.064-.102l6.3-3.15a.088.088 0 0 1 .081-.004c.02.008.068.037.09.11a4.781 4.781 0 0 0 4.549 3.378 4.781 4.781 0 0 0 4.549-3.378.163.163 0 0 1 .089-.11.087.087 0 0 1 .082.004l6.3 3.15a.114.114 0 0 1 .063.103v6.25zm-4.074 11.397H91.657a.115.115 0 0 1-.115-.115v-2.26h14.25v2.26a.115.115 0 0 1-.116.115zm4.718-19.166l-6.3-3.15a1.676 1.676 0 0 0-1.417-.041 1.746 1.746 0 0 0-.977 1.106 3.188 3.188 0 0 1-3.033 2.251 3.188 3.188 0 0 1-3.033-2.251c-.15-.5-.507-.903-.978-1.106a1.673 1.673 0 0 0-1.416.04l-6.3 3.15c-.58.29-.94.872-.94 1.52v6.25c0 .51.226.99.621 1.313.395.324.909.452 1.411.352l1.789-.357a.117.117 0 0 1 .095.024.11.11 0 0 1 .042.089v9.861a1.7 1.7 0 0 0 1.7 1.699h14.018a1.7 1.7 0 0 0 1.699-1.7V520.52a.11.11 0 0 1 .042-.089.113.113 0 0 1 .096-.024l1.789.357c.5.1 1.015-.028 1.41-.352.395-.324.621-.803.621-1.313v-6.25c0-.647-.36-1.23-.939-1.519z" id="Fill-36"/></g></g></svg>
